!!!OTL: MARLBRUCK ZOG AUS ZUM KRIEGE
!!!ARE: Europa, Mitteleuropa, Deutschland
!!!SCT: E0325
!!!YEM: Copyright 1995, estate of Helmut Schaffrath.
**kern
*ICvox
*Ivox
*M6/8
*k[f#]
*G:
{8b
=1
4b
8b
4b
8a
=2
4.cc
8b}
{8cc
8b
=3
4a
8a
8a
8g
8a
=4
4.b
4g}
{8g
=5
4b
8b
4b
8a
=6
4.cc
4b}
{8dd
=7
4b
8b
8a
8g
8a
=8
4.b
4r}
{8dd
=9
4dd
8b
4cc
8ee
=10
4.dd
4r}
{8dd
=11
4dd
8b
4cc
8ee
=12
4.dd
4r}
==
!!!AGN: historisches Lied, Krieg, Marlborough (1709)
!!!ONB: ESAC (Essen Associative Code) Database: ERK1
!!!AMT: compound duple
!!!AIN: vox
!!!EED: Helmut Schaffrath
!!!EEV: 1.0
*-
